blockchains/elrond/assets/QWT-46ac01/logo.svg

<svg fill="none" height="262" viewBox="0 0 262 262" width="262" xmlns="http://www.w3.org/2000/svg" xmlns:xlink="http://www.w3.org/1999/xlink"><linearGradient id="a" gradientUnits="userSpaceOnUse" x1="0" x2="262" y1="131" y2="131"><stop offset="0" stop-color="#4eae9e"/><stop offset=".65" stop-color="#7ec5aa"/></linearGradient><linearGradient id="b" gradientUnits="userSpaceOnUse" x1="90.6841" x2="200.866" y1="121.298" y2="121.298"><stop offset="0" stop-color="#dadada"/><stop offset="1" stop-color="#fff"/></linearGradient><linearGradient id="c" gradientUnits="userSpaceOnUse" x1="178.517" x2="50.7802" y1="154.619" y2="111.464"><stop offset="0" stop-color="#c6c6c6"/><stop offset="1" stop-color="#fff"/></linearGradient><rect fill="url(#a)" height="262" rx="131" width="262"/><path d="m97.2275 167.437c-1.1103-.421-2.2078-.875-3.291-1.361 1.0524.555 2.1542 1.011 3.291 1.361z" fill="#ffd104"/><path d="m197.599 78.3581c-2.111-4.9794-5.189-9.4906-9.055-13.2725-3.888-3.7975-8.476-6.8053-13.509-8.8569-5.251-2.1477-10.877-3.2336-16.55-3.1951h-38.176c-12.146 5.5134-22.4359 14.4269-29.6249 25.6632 3.6244-2.9645 8.1818-4.5492 12.8639-4.4732h54.917c2.71-.0598 5.403.4386 7.912 1.4643s4.779 2.5567 6.671 4.4978c1.895 1.8265 3.398 4.0204 4.417 6.4475 1.018 2.4272 1.531 5.0365 1.507 7.6686v53.9912c.019 2.704-.53 5.381-1.611 7.86-4.679 13.689-13.768 25.439-25.842 33.408h6.946c5.696.047 11.343-1.039 16.615-3.195 5.025-2.058 9.604-5.07 13.483-8.87 3.838-3.741 6.914-8.193 9.055-13.106 2.194-5.087 3.3-10.577 3.247-16.116v-53.9658c.013-5.4841-1.098-10.9126-3.266-15.9501z" fill="url(#b)"/><path d="m93.9365 166.076c1.0524.555 2.1542 1.011 3.291 1.361-1.1103-.421-2.2078-.875-3.291-1.361z" fill="#ffd104"/><path d="m158.459 168.37h-54.918c-2.14.011-4.2684-.303-6.3134-.933-1.1369-.35-2.2386-.806-3.291-1.361-1.8113-.974-3.4675-2.212-4.9141-3.674-1.9104-1.817-3.4271-4.007-4.456-6.434s-1.5481-5.04-1.5253-7.676v-53.9848c-.0217-2.6369.4979-5.2503 1.5267-7.6783 1.0288-2.4281 2.545-4.6192 4.4546-6.4377.5304-.5263 1.087-1.0254 1.6679-1.4953 7.1856-11.2368 17.4736-20.1507 29.6186-25.6633h-16.768c-5.6647-.0314-11.2802 1.0544-16.525 3.1952-5.0496 2.0424-9.6531 5.0485-13.5537 8.8505-3.8693 3.7832-6.9492 8.2967-9.0614 13.2789-2.1611 5.0388-3.266 10.4673-3.2462 15.95v53.9848c-.0531 5.54 1.0527 11.029 3.2462 16.116 2.1426 4.911 5.2178 9.36 9.055 13.1 3.9008 3.81 8.5067 6.822 13.5601 8.87 5.2448 2.141 10.8603 3.226 16.525 3.195h47.972c12.08-7.963 21.17-19.715 25.842-33.408-1.038 2.332-2.501 4.451-4.314 6.249-1.891 1.941-4.162 3.471-6.671 4.495-2.509 1.025-5.202 1.522-7.911 1.461z" fill="url(#c)"/><path d="m120.456 147.052v61.922h21.088v-72.453z" fill="#fff"/></svg>

<svg width="262" height="262" viewBox="0 0 262 262" fill="none" xmlns="http://www.w3.org/2000/svg">
<rect width="262" height="262" rx="131" fill="url(#paint0_linear_112_11209)"/>
<path d="M97.2275 167.437C96.1172 167.016 95.0197 166.562 93.9365 166.076C94.9889 166.631 96.0907 167.087 97.2275 167.437Z" fill="#FFD104"/>
<path d="M197.599 78.3581C195.488 73.3787 192.41 68.8675 188.544 65.0856C184.656 61.2881 180.068 58.2803 175.035 56.2287C169.784 54.081 164.158 52.9951 158.485 53.0336H120.309C108.163 58.547 97.8731 67.4605 90.6841 78.6968C94.3085 75.7323 98.8659 74.1476 103.548 74.2236H158.465C161.175 74.1638 163.868 74.6622 166.377 75.6879C168.886 76.7136 171.156 78.2446 173.048 80.1857C174.943 82.0122 176.446 84.2061 177.465 86.6332C178.483 89.0604 178.996 91.6697 178.972 94.3018V148.293C178.991 150.997 178.442 153.674 177.361 156.153C172.682 169.842 163.593 181.592 151.519 189.561H158.465C164.161 189.608 169.808 188.522 175.08 186.366C180.105 184.308 184.684 181.296 188.563 177.496C192.401 173.755 195.477 169.303 197.618 164.39C199.812 159.303 200.918 153.813 200.865 148.274V94.3082C200.878 88.8241 199.767 83.3956 197.599 78.3581Z" fill="url(#paint1_linear_112_11209)"/>
<path d="M93.9365 166.076C94.9889 166.631 96.0907 167.087 97.2275 167.437C96.1172 167.016 95.0197 166.562 93.9365 166.076Z" fill="#FFD104"/>
<path d="M158.459 168.37H103.541C101.401 168.381 99.2726 168.067 97.2276 167.437C96.0907 167.087 94.989 166.631 93.9366 166.076C92.1253 165.102 90.4691 163.864 89.0225 162.402C87.1121 160.585 85.5954 158.395 84.5665 155.968C83.5376 153.541 83.0184 150.928 83.0412 148.292V94.3072C83.0195 91.6703 83.5391 89.0569 84.5679 86.6289C85.5967 84.2008 87.1129 82.0097 89.0225 80.1912C89.5529 79.6649 90.1095 79.1658 90.6904 78.6959C97.876 67.4591 108.164 58.5452 120.309 53.0326H103.541C97.8763 53.0012 92.2608 54.087 87.016 56.2278C81.9664 58.2702 77.3629 61.2763 73.4623 65.0783C69.593 68.8615 66.5131 73.375 64.4009 78.3572C62.2398 83.396 61.1349 88.8245 61.1547 94.3072V148.292C61.1016 153.832 62.2074 159.321 64.4009 164.408C66.5435 169.319 69.6187 173.768 73.4559 177.508C77.3567 181.318 81.9626 184.33 87.016 186.378C92.2608 188.519 97.8763 189.604 103.541 189.573H151.513C163.593 181.61 172.683 169.858 177.355 156.165C176.317 158.497 174.854 160.616 173.041 162.414C171.15 164.355 168.879 165.885 166.37 166.909C163.861 167.934 161.168 168.431 158.459 168.37Z" fill="url(#paint2_linear_112_11209)"/>
<path d="M120.456 147.052V208.974H141.544V136.521L120.456 147.052Z" fill="white"/>
<defs>
<linearGradient id="paint0_linear_112_11209" x1="0" y1="131" x2="262" y2="131" gradientUnits="userSpaceOnUse">
<stop stop-color="#4EAE9E"/>
<stop offset="0.65" stop-color="#7EC5AA"/>
</linearGradient>
<linearGradient id="paint1_linear_112_11209" x1="90.6841" y1="121.298" x2="200.866" y2="121.298" gradientUnits="userSpaceOnUse">
<stop stop-color="#DADADA"/>
<stop offset="1" stop-color="white"/>
</linearGradient>
<linearGradient id="paint2_linear_112_11209" x1="178.517" y1="154.619" x2="50.7802" y2="111.464" gradientUnits="userSpaceOnUse">
<stop stop-color="#C6C6C6"/>
<stop offset="1" stop-color="white"/>
</linearGradient>
</defs>
</svg>
